!!!OTL: Idir chaiseal agus dúrlas, S. 166
!!!id: I0557
**kern
*clefG2
*k[]
*D:
{8.dd
16b
=1
4a
4a
8.dd
16b
=2
4a
4e
8.d
16e
=3
8.g
16g
4.a
8d
=4
4e
4d}
8r
=5
{8dd
=6
4dd
4.cc
16a
16b
=7
4a
4g
8d
8e
=8
4g
4a
8b
8g
=9
2a}
=10
{8b
8dd
=11
4dd
4dd
8.ee
16dd
=12
8cc
8a
16d
8b
8a
8g
16d}
=13yy
8r
=14
{8d
=15
8e
8g
4.g
8d
=16
4e
4.d
8g
=17
4a
4a
16d
8dd
8cc
8b
16d}
=18
{4cc#
4g
8a
8g
=19
4e
4.d
8d
=20
2d}
==
*-
!!!minrhy: 16
!!!meters: 3/4 ]  ZZ[5
!!!cut: Idir chaiseal agus dúrlas, S. 166
!!!reg: Irland
!!!trd: O'SULLIVAN, Donal: Song of the Irish
!!!rhy1: X_.X  X__X__X_.X  X__X__X_.X  X_.XX__.X_  X__X__0_
!!!rhy2: X_  X__X__.XX  X__X__X_X_  X__X__X_X_  X___
!!!key: I0557  16  D 3/4 ]  ZZ[5
!!!mod: HEPTATONIK ]  AMBITUS[9
!!!kad: 15461
!!!akz: 5542_+1545_+17b_225_721_
!!!fot: 'a__b__c__d__e__
!!!for: 'a__b__c__d__e__
!!!fok: 'Sd_Vd_^d_Ma_\__
!! PHRAS[VORWIEGEND AUFTAKTIG]
!!!fkt: verbotene Liebe
!! IRISCHE V
!! PR[27] 2K[11] 2G[20] 3K[4] 3G[2] 4A[0] 4Ü[0] 5A[0] 6K[0] 6G[2]
!! 7K[0] 7G[0] 8A[0] MEHR[0] SI[38] ABS[56] SR[30] SP[7]
!! ST[16] 2k[7] 2g[14] 3k[9] 3g[5] 4d[0] 4ü[0] 5d[0] 6k[0] 6g[0]
!! 7k[0] 7g[0] 8d[0] mehr[0] si[36] dm[+2] sr[21] sp[14]
!! 1F[4] 2F[81] 3F[12] 4F[0] LF[0] 2P[4] 3P[0] 4P[0] TRI[0] DF[4] AB[57]
!! TF[0] U3K[0] U3[0] U4[0] U4Ü[0] U5[12] U6K[0] U6[9] U7K[0] U7[0]
!! N1[19] N2K[0] N2[12] N3K[0] N3[26] N4[14] N4Ü[0] N5[7] N6K[0] N6[0]
!!!n7k: 0] N7[0] O1[0] O2K[0] O2[0] O3K[0] O3[0] HÖ[0
